icons/image-add-fill.svg

<svg viewBox="0 0 24 24" fill="currentColor" xmlns="http://www.w3.org/2000/svg">
    <path d="M21 15V18H24V20H21V23H19V20H16V18H19V15H21ZM21.0082 3C21.556 3 22 3.44495 22 3.9934L22.0007 13.3417C21.3749 13.1204 20.7015 13 20 13V5H4L4.001 19L13.2929 9.70715C13.6528 9.34604 14.22 9.31823 14.6123 9.62322L14.7065 9.70772L18.2521 13.2586C15.791 14.0069 14 16.2943 14 19C14 19.7015 14.1204 20.3749 14.3417 21.0007L2.9918 21C2.44405 21 2 20.5551 2 20.0066V3.9934C2 3.44476 2.45531 3 2.9918 3H21.0082ZM8 7C9.10457 7 10 7.89543 10 9C10 10.1046 9.10457 11 8 11C6.89543 11 6 10.1046 6 9C6 7.89543 6.89543 7 8 7Z"/>
</svg>

<svg xmlns="http://www.w3.org/2000/svg" viewBox="0 0 24 24">
    <g>
        <path fill="none" d="M0 0h24v24H0z"/>
        <path d="M21 15v3h3v2h-3v3h-2v-3h-3v-2h3v-3h2zm.008-12c.548 0 .992.445.992.993v9.349A5.99 5.99 0 0 0 20 13V5H4l.001 14 9.292-9.293a.999.999 0 0 1 1.32-.084l.093.085 3.546 3.55a6.003 6.003 0 0 0-3.91 7.743L2.992 21A.993.993 0 0 1 2 20.007V3.993A1 1 0 0 1 2.992 3h18.016zM8 7a2 2 0 1 1 0 4 2 2 0 0 1 0-4z"/>
    </g>
</svg>
